X:78
T:Pepper's Black. (p)1651.PLFD1.078
M:6/4
L:1/4
Q:3/4=90
S:Playford, Dancing Master,1st Ed.,1651.
O:England;London
N:
H:1651.
Z:Chris Partington.
K:D
d|c2Ae2e|c>BAe2A|dede>fg/a/|f3d2:|
|:d|efgg>ag|efgg>fg|f2ga>bg/a/|f3d2:|
